material/.icons/material/room-service.svg

<svg xmlns="http://www.w3.org/2000/svg" viewBox="0 0 24 24"><path d="M12 5a2 2 0 012 2c0 .24-.04.47-.12.69C17.95 8.5 21 11.91 21 16H3c0-4.09 3.05-7.5 7.12-8.31-.08-.22-.12-.45-.12-.69a2 2 0 012-2m10 14H2v-2h20v2z"/></svg>

<?xml version="1.0" encoding="UTF-8"?><!DOCTYPE svg PUBLIC "-//W3C//DTD SVG 1.1//EN" "http://www.w3.org/Graphics/SVG/1.1/DTD/svg11.dtd"><svg xmlns="http://www.w3.org/2000/svg" xmlns:xlink="http://www.w3.org/1999/xlink" version="1.1" id="mdi-room-service" width="24" height="24" viewBox="0 0 24 24"><path d="M12,5A2,2 0 0,1 14,7C14,7.24 13.96,7.47 13.88,7.69C17.95,8.5 21,11.91 21,16H3C3,11.91 6.05,8.5 10.12,7.69C10.04,7.47 10,7.24 10,7A2,2 0 0,1 12,5M22,19H2V17H22V19Z" /></svg>
